svgs/duotone/salad.svg

<svg xmlns="http://www.w3.org/2000/svg" viewBox="0 0 512 512"><!-- Font Awesome Pro 6.0.0-alpha2 by @fontawesome - https://fontawesome.com License - https://fontawesome.com/license (Commercial License) --><defs><style>.fa-secondary{opacity:.4}</style></defs><path d="M416.154 96C418.779 96 421.281 96.625 423.906 96.75C406.275 76.875 380.891 64 352.131 64C343.627 64.125 335.125 65.375 326.996 67.75C309.365 26.625 268.85 0 224.082 0C179.316 0 138.801 26.625 121.17 67.75C113.041 65.375 104.539 64.125 96.035 64C43.016 64 0 107 0 160S43.016 256 96.035 256H169.324L84.637 171.312C78.387 165.062 78.387 154.937 84.637 148.688S101.012 142.438 107.262 148.688L207.949 249.375V112C207.949 103.156 215.105 96 223.949 96S239.949 103.156 239.949 112V256H292.607C289.732 245.625 288.232 234.875 288.107 224C288.232 153.375 345.502 96.125 416.154 96ZM415.949 128C362.93 128 319.949 170.98 319.949 224C319.949 235.281 322.254 245.945 325.828 256H506.07C509.645 245.945 511.949 235.281 511.949 224C511.949 170.98 468.969 128 415.949 128Z" class="fa-secondary"/><path d="M495.804 288H16.195C7.06 288 -0.7 295.75 0.05 304.875C6.808 381.25 58.374 444.25 128.212 468.75V480C128.212 497.625 142.607 512 160.253 512H352.497C370.144 512 384.537 497.625 384.537 480V468.5C454.001 443.875 505.316 381 511.949 304.875C512.701 295.75 505.066 288 495.804 288ZM169.374 256H239.999V112C239.999 103.156 232.843 96 223.999 96S207.999 103.156 207.999 112V249.375L107.312 148.688C101.062 142.438 90.937 142.438 84.687 148.688S78.437 165.063 84.687 171.312L169.374 256Z" class="fa-primary"/></svg>

<svg xmlns="http://www.w3.org/2000/svg" viewBox="0 0 512 512"><!--! Font Awesome Pro 6.3.0 by @fontawesome - https://fontawesome.com License - https://fontawesome.com/license (Commercial License) Copyright 2023 Fonticons, Inc. --><defs><style>.fa-secondary{opacity:.4}</style></defs><path class="fa-primary" d="M495.8 288H16.19C7.055 288-.6992 295.8 .0508 304.9c6.758 76.38 58.28 139.4 128.1 163.9V480c0 17.62 14.45 32 32.09 32h192.2c17.65 0 32.04-14.38 32.04-32v-11.5c69.46-24.62 120.8-87.5 127.4-163.6C512.7 295.8 505.1 288 495.8 288zM169.4 256H240V112C240 103.2 232.8 96 224 96S208 103.2 208 112v137.4L107.3 148.7c-6.25-6.25-16.38-6.25-22.62 0s-6.25 16.38 0 22.62L169.4 256z"/><path class="fa-secondary" d="M416.2 96c2.625 0 5.127 .625 7.752 .75C406.3 76.88 380.9 64 352.2 64c-8.504 .125-17.1 1.411-25.23 3.786C309.3 26.66 268.9 0 224.1 0C179.4 0 138.9 26.62 121.2 67.75C113.1 65.38 104.6 64.13 96.09 64C43.07 64 .0508 107 .0508 160s43.02 96 96.04 96h73.29L84.69 171.3c-6.25-6.25-6.25-16.38 0-22.62s16.38-6.25 22.62 0L208 249.4V112C208 103.2 215.2 96 224 96s16 7.156 16 16V256h52.66c-2.875-10.38-4.375-21.12-4.5-32C288.3 153.4 345.6 96.13 416.2 96zM416 128c-53.02 0-96 42.98-96 96c0 11.28 2.305 21.95 5.879 32h180.2C509.7 245.9 512 235.3 512 224C512 170.1 469 128 416 128z"/></svg>
